!!!COM: Claude Goudimel
!!!OMD: Psalm 99: Or est maintenant
**kern	**kern	**kern	**kern
*part4	*part3	*part2	*part1
*staff4	*staff3	*staff2	*staff1
*clefF4	*clefGv2	*clefG2	*clefG2
*k[f#]	*k[f#]	*k[f#]	*k[f#]
!!LO:TX:omd:t=
*M4/4	*M4/4	*M4/4	*M4/4
=1	=1	=1	=1
2GG	2B	2d	2g
2GG	2d	2B	2d
=2	=2	=2	=2
4C	4c	4G	4e
4D	4A	4d	4f#
4GG	4B	4d	4g
[4G	[4G	[4d	[4b
=3	=3	=3	=3
4G]	4G]	4d]	4b]
4G	4G	4d	4b
4C	4G	4e	4cc
4D	4F#	4d	4a
=4	=4	=4	=4
2GG	2G	2d	2g
2r	2r	2r	2r
=5	=5	=5	=5
2G	2B	2g	2dd
2D	2A	2f#X	2dd
=6	=6	=6	=6
4E	4G#X	4e	4b
4AA	4A	4e	4cc
4D	4A	4f#X	4dd
[4G	[4Gn	[4d	[4b
=7	=7	=7	=7
4G]	4G]	4d]	4b]
4G	4B	4B	4dd
4A	4A	4e	4cc
4A	4A	4e	4cc
=8	=8	=8	=8
2E	2G#X	2e	2b
2r	2r	2r	2r
=9	=9	=9	=9
2G	2B	2g	2dd
2C	2Gn	2e	2cc
=10	=10	=10	=10
4G	4G	4d	4b
4D	4F#	4d	4a
4E	4G	4B	4g
[4AA	[4A	[4c#X	[4e
=11	=11	=11	=11
4AA]	4A]	4c#]	4e]
4D	4A	4d	4f#
4GG	4B	4d	4g
4AA	4A	4c#X	4e
=12	=12	=12	=12
2D	2F#	2d	2d
2r	2r	2r	2r
=13	=13	=13	=13
2GG	2G	2B	2d
2GG	2B	2d	2g
=14	=14	=14	=14
4D	4A	4d	4a
4BB	4G	4d	4b
2AA	2A	2e	2cc
=15	=15	=15	=15
4BB	4F#	4d	4b
2E	2E	2B	2g
4D	4F#	4d	4a
=16	=16	=16	=16
4G	4G	4d	4b
4C	2G	4e	4cc
2D	.	2d	2a
.	4F#	.	.
=17	=17	=17	=17
1GG	1G	1d	1g
==	==	==	==
*-	*-	*-	*-
!!!software: music21 v.9.7.1
!!!software: music21 v.8.3.0
!!!RDF**kern: > = above
!!!RDF**kern: < = below
